!!!OTL: Caicha
!!!ARE: Asia, China,ÿHenan, Lushi
!! IV, 168
!!!SCT: C1669
!!!YEM: Copyright 1995, estate of Helmut Schaffrath.
**kern
*ICvox
*Ivox
!! Mixed meters:  2/4; 3/4
*M3/4
*k[f#]
*G:
{8b
16gg
16ee
4dd
=1
8b
16gg
16ee
4dd
=2
8b
8gg
16ee
16gg
8dd
=3
8ee
16b
16a
8.g
16a
4g}
=4
*M2/4
{8.g
16a
8dd
8dd
=5
16ee
16gg
8b
8a
16g
16e
=6
8dd
4dd
8e
=7
8g
16g
16e
4d}
==
!!!AGN: Wuge, Zhuma
!!!AMT: irregular
!!!AIN: vox
!!!EED: Helmut Schaffrath
!!!EEV: 1.0
*-
